X: 1
T: Mooses-feedi
R: shottish
O: Finland
M: 4/4
L: 1/8
K: D
|: de \
| "D"f>e dc "A7"e>d cB | "D"A2 Ad f4 |1 "A7"g2 gf e2 e2 | "D"a2 ag f2 \
                                    :|2 "A7"g2 gf e2 ec | "D"d2 d2 d2 :|
|: df \
| "D"a2 af "G"b2 bg | "D"a2 ag f4 |1 "A7"g2 gf e2 e2 | "D"a2 ag f2 \
                                 :|2 "A7"g2 gf e2 ec | "D"d2 d2 d2 :|
